X:1
T:Title
%%score ( 1 2 ) { 3 | 4 }
L:1/8
Q:1/4=93
M:4/4
K:Ab
V:1 treble nm="Grand Piano, Soprano"
V:2 treble 
V:3 bass nm="Choir Pad, Closer Walk with Thee"
V:4 bass 
V:1
 [CA][DB][Ec][Ec] [DB][EA][DB][FA] | [EG][DF][CE][CA] [CA]>[DB] [Ec]2 | %2
w: By~William~James~Kirkpatrick * * * * * * *||
 [DB][CA][EB][EB] [EB][Ec][Ed][Ed] | [Ec][EB][Ec][Ee] [Ee]>[Ec] [EB]2 | %4
w: ||
 [Ec][Ed][Ee][Ee] [Ed][Ec][EGd][EGd] | [Ec][EB][Ec][Ec] [EB][=DA] [EB]2 | %6
w: ||
 [CA][DB][Ec][Ec] [DB][EA][DB][FA] | [EG][DF] [CE]<[CA] [Ec]>[DB] [CA]2 | %8
w: ||
 [Ec]>[Ed] [Ae]<[Ae] [Ae]>[Ae] [Ae]2 | [Ec]>[EB] [EA]<[EA] [FA]>[FA] [EA]2 | %10
w: ||
 [EA][EA] [Ed]2 [Ed]2 [Ed]2 | [Ec]2 [EB]6 | [Ec][Ed] [Ae]4 [Ae]2 | [Ec][EB] A2- AB [FA]2 | %14
w: ||||
 [EG][DF][CE][EA]- [EA]2 [Ec]2 | [DB]2 [CA]6- | [CA]2 z2 z4 |] %17
w: |||
V:2
 x8 | x8 | x8 | x8 | x8 | x8 | x8 | x8 | x8 | x8 | x8 | x8 | x8 | z2 F4 z2 | x8 | x8 | x8 |] %17
V:3
 E,E,A,A, G,A,F,A, | A,A,A,E, E,>E, A,2 | E,A,G,G, G,A,B,B, | A,G,A,C C>A, G,2 | A,B,CC B,A,B,B, | %5
 A,G,A,A, B,B, G,2 | A,A,A,A, G,A,F,F, | G,A, A,<A, A,>G, A,2 | A,>B,[K:treble] C<C C>C C2 | %9
 A,>D C<C D>D C2 | CC[K:bass] B,2 B,2 A,2 | A,2 G,6 | A,B,[K:treble] C<C C>C C<C | %13
 A,A, A,<A, D>D A,<A, | A,A,A,C- C2 A,2 | G,2 A,6- | A,2 z2 z4 |] %17
V:4
 A,,A,,A,,A,, B,,C,D,D, | D,D,A,,A,, A,,>A,, A,,2 | A,,A,,E,E, E,E,E,E, | E,E, z A, A,2 E,2 | %4
 z G,A,A, .A,2 E,E, | E,E, z2 G,F, E,2 | A,,A,,A,,A,, B,,C,D,D, | D,D, E,<E, E,>E, A,,2 | %8
 z z/ A,/ A,<A, A,>A, A,2 | A,,>A,, A,,<A,, D,>D, A,,2 | A,A, G,2 G,2 z2 | z2 E,6 | %12
 z A, A,<A, A,>A, A,<A, | C,C, D,<D, D,>D, D,<D, | D,D,E,E,- E,2 E,2 | E,2 [A,,E,]6- | %16
 [A,,E,]2 z2 z4 |] %17

